X:1
T:Blagoslovi, dusje moja, Gospodi
T:Blagoslovi, dusje moja, Gospodi
T:op. 9, nr. 18
T:Pavel Tsjesnokov
C:Pavel Tsjesnokov
%%score [ 1 2 3 4 ]
L:1/8
M:4/2
K:C
V:1 treble nm="Sopran"
V:2 treble nm="Sopran"
V:3 treble nm="Alt"
V:4 treble nm="Alt"
V:1
 z2!mf! c2 c2 c2 | d6 c2 B4 A2 B2 | c6 c2 c8- | c16- | c8- c2!mf! c2 c2 c2 | d4 c4 (A6 B2) | %6
w: Bla- go- slo-|vi, du- sje mo- ja,|Gos- po- da.|_|* * Bla- go- slo-|ven e- si _|
 c6 c2 c8- | c16- | c8- c4 z4 |!f! d4!>(! d2 c2!>)! (B2 A2) (B2 c2) | %10
w: Gos- po- di.|_||Gos- po- di, Bo- * zje _|
 d4 d2!>(! c2 B2 A2!>)!!<(! B2 c2!<)! | d2 d2 d4- d2!mf! G2 A2 B2 | c6 c2 c8 | c6 c2 c4- c2 z2 | %14
w: moj, voz- ve- li- tsjil- sja e-|si ze- lo. _ Bla- go- slo-|ven e- si|Gos- po- di. _|
 z8!p! c4 A4 | B4 B2 B2 !breath!B4 c2 A2 | B6 B2!<(! B8!<)! |!f! c4 g4 (f2 e2) d2 c2 | %18
w: Fsia pre-|mu- dro- sti- ju so- tvo-|ril e- si.|Sla- va, sla- * va Ti|
 e6 c2 c4- c2 z2 | c4 g4 f2 e2 d2 c2 | e4 e2 e2 e4 e4 | f4 e4 d4 c4 | d8 d4 !breath!d4 | e16- | %24
w: Gos- po- di, _|sla- va, sla- va so- tvo-|riv- sje- mu sla- va,|sla- va so- tvo-|riv- sje- mu|fsia.|
 e4 z4 |] %25
w: _|
V:2
 z8 | z16 | z8 z2!p! G2 G2 F2 | G4 A4 (F2 G2) A2 F2 | G6 G2 G4 z4 | z16 | z8 z2!p! G2 G2 F2 | %7
w: ||Bla- go- slo-|vi, du- sje _ mo- ja,|Gos- po- da.||Bla- go- slo-|
 G4 A4 (F6 A2) | G6 G2 G4 z4 |!f! B4!>(! B2 c2!>)! (B2 A2) (G2 A2) | %10
w: ven e- si _|Gos- po- di.|Gos- po- di, Bo- * zje _|
 B4 B2!>(! c2 B2 A2!>)!!<(! G2 A2!<)! | B2 B2 B4- B2 z2 z4 | z2!mf! G2 G2 A2 (F2 G2) A2 F2 | %13
w: moj, voz- ve- li- tsjil- sja e-|si ze- lo. _|Bla- go- slo- ven _ e- si|
 G6 G2 G4- G2 z2 | z8!p! A4 A4 | A4 A2 A2 !breath!A4 A2 A2 | A6 A2!<(! (A4 G4)!<)! | %17
w: Gos- po- di. _|Fsia pre-|mu- dro- sti- ju so- tvo-|ril e- si. _|
!f! c4 c4 c4 c2 c2 | c6 G2 G4 c2 c2 | c4 c4 c2 c2 c2 B2 | B4 B2 B2 B4- B2 z2 | c4 c4 B4 A4 | %22
w: Sla- va, sla- va Ti|Gos- po- di, sla- va,|sla- va, sla- va so- tvo-|riv- sje- mu fsia, _|sla- va so- tvo-|
 A8 A4 !breath!A4 | c16- | c4 z4 |] %25
w: riv- sje- mu|fsia.|_|
V:3
 z8 | z16 | z8 z2!p! E2 E2 D2 | E4 F4 (D2 E2) F2 D2 | E6 E2 E4 z4 | z16 | z8 z2!p! E2 E2 D2 | %7
w: ||Bla- go- slo-|vi, du- sje _ mo- ja,|Gos- po- da.||Bla- go- slo-|
 E4 F4 (D6 F2) | E6 E2 E4 z4 |!f! G4!>(! G2 G2!>)! G4 D4 | G4 G2!>(! G2 G2 G2!>)!!<(! D2 D2!<)! | %11
w: ven e- si _|Gos- po- di.|Gos- po- di, Bo- zje|moj, voz- ve- li- tjil- sja e-|
 G2 G2 G4- G2 z2 z4 | z2!mf! E2 E2 F2 (D2 E2) F2 D2 | E6 E2 E4- E2 z2 | z8!p! E4 C4 | %15
w: si ze- lo. _|Bla- go- slo- ven _ e- si|Gos- po- di. _|Fsia pre-|
 F4 F2 F2 !breath!F4 E2 C2 | F6 F2!<(! F8!<)! |!f! c4 _B4 (A2 G2) A2 A2 | G6 E2 E4 c2 c2 | %19
w: mu- dro- sti- ju so- tvo-|ril e- si.|Sla- va, sla- * va Ti|Gos- po- di, sla- va,|
 c4 _B4 A2 G2 A2 A2 | ^G4 G2 G2 G4- G2 z2 | A4 G4 G4 A4 | F8 G4 !breath!G4 | G16- | G4 z4 |] %25
w: sla- va, sla- va so- tvo-|riv- sje- mu fsia, _|sla- va so- tvo-|riv- sje- mu|fsia.|_|
V:4
 z2!mf! C2 C2 C2 | D6 C2 B,4 A,2 B,2 | C6 C2 C2!p! C2 C2 G,2 | C4 C4 C4 C2 C2 | %4
w: Bla- go- slo-|vi, du- sje mo- ja,|Gos- po- da. Bla- go- slo-|vi, du- sje mo- ja|
 C6 C2 C2!mf! C2 C2 C2 | D4 C4 (A,6 B,2) | C6 C2 C2!p! C2 C2 G,2 | C4 C4 C8 | C6 C2 C4 z4 | %9
w: Gos- po- da. Bla- go- slo-|ven e- si _|Gos- po- di. Bla- go- slo-|ven e- si|Gos- po- di.|
!f! G4!>(! G2 E2!>)! (D2 C2) (B,2 A,2) | G,4 G2!>(! E2 D2 C2!>)!!<(! B,2 A,2!<)! | %11
w: Gos- po- di, Bo- * zje _|moj, voz- ve- li- tsjil- sja e-|
 G,2 G,2 G,4- G,2!mf! G,2 A,2 B,2 | C6 C2 C8 | C6 C2 C4- C2 z2 | z8!p! A,4 A,4 | %15
w: si ze- lo. _ Bla- go- slo-|ven e- si|Gos- po- di. _|Fsia pre-|
 D4 D2 D2 !breath!D4 A,2 A,2 | D6 D2!<(! D8!<)! |!f! C4 _B4 (A2 G2) F2 F2 | C6 C2 C4- C2 z2 | %19
w: mu- dro- sti- ju so- tvo-|ril e- si.|Sla- va, sla- * va Ti|Gos- po- di, _|
 C4 _B4 A2 G2 F2 F2 | E4 E2 E2 E4 E4 | D4 E4 G4 A4 | D8 G4 !breath!G4 | C16- | C4 z4 |] %25
w: sla- va, sla- va so- tvo-|riv- sje- mu sla- va,|sla- va so- tvo-|riv- sje- mu|fsia.|_|

